!!!COM: nobuo-uematsu
!!!OTL: locke-theme
!!!RNB: hooktheoryid: knJmBJAXmAV
**kern	**text
*clefG2	*
*k[f#]	*
*M4/4	*
=1	=1
4.ff	Dm
8ff	.
8ee	C
8dd	.
8cc	.
8ee	.
=2	=2
2dd	A#
4a#	G7sus4
4dd	.
=3	=3
[1cc	F
=4	=4
[4ccL	F
[4cc]JL	F/C
[4cc]J]JL	F
4cc]J]J]J	F/C
=5	=5
4.ff	Dm
8ff	.
8ee	C
8dd	.
8cc	.
8ee	.
=6	=6
[2ddL	A#
2dd]J	Am
=7	=7
4.dd	Gm
8dd	.
8cc	F
8a#	.
8a	.
8cc	.
=8	=8
2a#	D#
4d#	.
4f	.
=9	=9
2.g	D#7/C#
4g#	.
=10	=10
2f	C#
2a#	.
=11	=11
2g#	Fm
4g	D#/G
4g#	.
=12	=12
[2fL	Fm/G#
2f]J	Fm/C
=13	=13
2.g	D#7/C#
4g#	.
=14	=14
2f	A#m
2a#	.
=15	=15
[2ccL	D7sus4
4cc]J	D7sus4/A
8b	.
8cc	.
=16	=16
1dd	D
=17	=17
1r	.
*-	*-